X: 1011
T: Valse-Clog Guilmette
R: Valse Clog
I: scale 0.78
C: Joseph Guilmette
M: 3/4
Q: 175
L: 1/8
K: Bmin
|: ~g2 |"Bm"ff Bc de | ff Bc dB | "Em"gg Bg gB | "Bm"Bf f2 zg |~f2 Bc de | 
~"Bm"f2 Bc dB |"C#7" c>f f2 f2 | "F#7"c2 fe fg |"Bm"~f2 Bc de | ~f2 Bc dB | "Em"gg Bg gB- 
| "Bm"Bf-f3f |"F#"f2 ~g2 ~f2 | ~e2 ~d2 ~c2 | "Bm"~B2 FB df |1 bb bg ~g2 :|2 b4-bf||
|:"Em7"a2 g2 B2 | "A"c2 zc ~B2 | "D"AA ff AA | "Bm7"BB Ba aa |"Em7"a2 gg BB | "A"~c2 f2 zc | 
"D"ee dd "Em"~B2 | "D/F#"Aa aa aa |"Em7"aa gg BB | "A7"cA eA ~B2 | "D"AA ff AA | "Bm7"BB Ba aa |
"Em7"a2 g3 B | "A"cA fd ec | "D"~d2 Ad fa |1 d'a ga ge:|2 d'z g4|]

